X: 2
T: Mairi's Wedding
R: polka
M: 2/4
L: 1/8
K: Ador
|: A>^G AB | de f2 | ed Bd | fe f<a |
A>A AB | de fg/f/ | ed BG | A2 A2 |
a>^g ab | ag f2 | ed Bd | fe f<a |
a>a ab | ag f2 | ed BG | A2 A2 :|
a>^g ab | ag f2 | ed Bd | fe f<a |
A>F AB | de fg/f/ | e>d B/A/G | A2- A2 |]


Tune 706	Setting 706

